X: 20293
T: NEPOLITON WALTZ
C:
%R: waltz
B: Elias Howe "The Musician's Companion" 1843 p.29 #3
S: http://imslp.org/wiki/The_Musician's_Companion_(Howe,_Elias)
Z: 2015 John Chambers <jc:trillian.mit.edu>
M: 3/8
L: 1/16
K: Bb
% - - - - - - - - - - - - - - - - - - - - - - - - -
(de) |\
fd B2 bg | fd B2 (fd) | (ec).A.F(Ac) | (e2d2) (de) |\
fd B2 bg | fd B2 (fd) | (ec).A.F(Ac) | B4 :|
|: AB |\
(cA)FAce | (dB)GBdf | (gf).g.f(bg) | f4 AB |\
(cA)FAce | (dB)GBdf | (gf).b.g(fd) | B4 :|
% - - - - - - - - - - - - - - - - - - - - - - - - -

%%sep 1 1 500

